X: 2064
T: Âteş-i Aşkınla Cânâ
C: Emin Ongan
O: Turkey
F: http://compmusic.upf.edu/node/140
N: acemasiran--sarki--curcuna--ates-i_askinla--emin_ongan
N: makam= acemasiran
N: form= sarki
N: usul= curcuna = 10/8
M: 10/8
L: 1/16
K: C _B   
Q: 1/4=228
%%MIDI tuningsystem comma53
f6e2 d2c4d2 e2f2  | e4 f6f8^f2  | g6g4^f2 g2a2 {b}a2g2  | \
w:  Â teş_ *  i   |  aş  |  kın la  câ  | 
g8-g2g8-g2  | 
w:  nâ   | 
f4 e2f2 g2a3gf2 e2d2  | e2f2 g2f2 e2d2 e2c6  | \
w:  dil  *  ha *  râb   |  ol  | 
a4 g2f4e2 f2g2 {a}g2f2  | 
w:  mak *  *  *  *  *  *  ta  | 
f8 .e.d.c.B .A.GF6  | f6e2 d2c4d2 e2f2  | \
w:  dır   SAZ  |  Â teş_ *  i   | 
e4 f6f8^f2  | g6g4^f2 g2a2 {b}a2g2  | 
w:  aş  |  kın la  câ  | 
g8-g2g8-g2  | f4 e2f2 g2a3gf2 e2d2  | \
w:  nâ   |  dil  *  ha *  râb   | 
e2f2 g2f2 e2d2 e2c6  | 
w:  ol  | 
a4 g2f4e2 f2g2 {a}g2f2  | f8 c2d2 e2f2 g2a2  | \
w:  mak *  *  *  *  *  *  ta  |  dır   SAZ  | 
g6a4a4g4f2  | b8-b2b2 a2{b}a2 g2f2  | 
w:  Ders_ i  aşk_  |  ı   | 
g6a4g2 f2e2 d2e2  | c6{B}d4c2 BAB6  | \
w:  meşk_ i çin   |  sî  | 
B4 A2B2 c2f2 _e2d2 c2B2  | 
w:  nen  *  ki *  tâb   | 
A2B2 d2c2 B2A2 G2F6  | A4 G2F4A2 G2F4E2  | \
w:  ol  |  mak *  *  *  *  ta  | 
{G}F8 c2d2 e2f2 g2a2  | 
w:  *  dır   SAZ  | 
g6a4a4g4f2  | b8-b2b2 a2{b}a2 g2f2  | \
w:  Ders_ i  aşk_  |  ı   | 
g6a4g2 f2e2 d2e2  | c6{B}d4c2 BAB6  | 
w:  meşk_ i çin   |  sî  | 
B4 A2B2 c2f2 _e2d2 c2B2  | A2B2 d2c2 B2A2 G2F6  | \
w:  nen  *  ki *  tâb   |  ol  | 
A4 G2F4A2 G2F4E2  | 
w:  mak *  *  *  *  ta  | 
{G}F8 c2_2/4B2 _3/4d2c6  | c6e4_3/4d2 c2_2/4B4d2  | \
w:  *  dır   SAZ  |  Ba ri  vas  | 
c4 _3/4d2e4f4g6  | _7/8a6g2 f2e2 f2g2 {=a}g2f2  | 
w:  lın  |  la  şi *  fâ  | 
f8-f2f8z2  | f4 e2f2 g2a2 g2f2 e2d2  | \
w:  yâb   |  et  *  pe *  rî  | 
e2f2 g2f2 e2d2 e2c6  | 
w:  şân   | 
a4 g2f4e2 f2g2 {a}g2f2  | f8 c2d2 e2f2 g2a2  | \
w:  gön *  *  *  *  *  *  lü  |  mü   SAZ  | 
g6a4a4g4f2  | b8-b2b2 a2{b}a2 g2f2  | 
w:  Ders_ i  aşk_  |  ı   | 
g6a4g2 f2e2 d2e2  | c6{B}d4c2 BAB6  | \
w:  meşk_ i çin   |  sî  | 
B4 A2B2 c2f2 _e2d2 c2B2  | 
w:  nen  *  ki *  tâb   | 
A2B2 d2c2 B2A2 G2F6  | A4 G2F4A2 G2F4E2  | \
w:  ol  |  mak *  *  *  *  ta  | 
{G}F8 c2d2 e2f2 g2a2  | 
w:  *  dır   SAZ  | 
g6a4a4g4f2  | b8-b2b2 a2{b}a2 g2f2  | \
w:  Ders_ i  aşk_  |  ı   | 
g6a4g2 f2e2 d2e2  | c6{B}d4c2 BAB6  | 
w:  meşk_ i çin   |  sî  | 
B4 A2B2 c2f2 _e2d2 c2B2  | A2B2 d2c2 B2A2 G2F6  | \
w:  nen  *  ki *  tâb   |  ol  | 
A4 G2F4A2 G2F4E2  | 
w:  mak *  *  *  *  ta  | 
{G}F8 |
w:  *  dır    | 


